X: 28538
T: Munster, The
R: jig
M: 6/8
K: Gmajor
~G3 AGA|B2g gdB|GAB c2A|BGE EDE|
~G3 AGA|B2g gdB|cBA BdB|AGF G2D:|
~g3 efg|fga gfe|gfg efg|afd d2f|
gfe agf|gfe d2B|cBA BdB|AGF GBd:|

